X:1
T:Blessèd Be the Name
T:Blessèd Be the Name
T:Ralph E. Hudson, harm. William Kirkpatrick
T:William Henry Clark (1854-1925)
T:Public Domain Courtesy of the Cyber Hymnal™
C:Ralph E. Hudson, harm. William Kirkpatrick
Z:Public Domain
Z:Courtesy of the Cyber Hymnal™
%%score 1 ( 2 3 )
L:1/8
Q:1/4=110
M:4/4
K:A
V:1 treble 
V:2 bass 
V:3 bass 
V:1
 [CE]2 | [CE]2 [CA]2 [Ec]3 [EA] | [FA]2 [DF]2 [CE]3 [CE] | [CE]2 [CA]2 [Ec]2 [EA]2 | [EB]6 [Ed]2 | %5
w: 1.~All|praise to Him who|reigns a- bove In|ma- jes- ty su-|preme, Who|
w: 2.~His|name a- bove all|names shall stand, Ex-|alt- ed more and|more, At|
w: 3.~Re-|deem- er, Sav- ior,|friend of man Once|ru- ined by the|fall, Thou|
w: 4.~His|name shall be the|Coun- se- lor, The|might- y Prince of|Peace, Of|
 [Ec]2 [EB]2 [CA]2 [EB]2 | [Ec]2 [EA]2 [FA]3 [DF] | [CE]2 [CA]2 [Ec]2 [DB]2 | [CA]6 z2 || %9
w: gave His Son for|man to die, That|He might man re-|deem!|
w: God the Fa- ther’s|own right hand, Where|an- gel hosts a-|dore.|
w: hast de- vised sal-|va- tion’s plan, For|Thou hast died for|all.|
w: all earth’s king- doms|con- quer- or, Whose|reign shall ne- ver|cease.|
"^Refrain" [CE][CE][CA][DB] [Ec]4 | [FA][FB][FA][DF] [CE]4 | [CE][CE][EA][EB] [Ec]2 [EB][^DA] | %12
w: |||
w: |||
w: |||
w: |||
 [EB]8 | [CE][CE][CA][DB] [Ec]4 | [FA][FB][FA][DF] [CE]4 | [CE][CE][EA][FB] [Ec]2 [DB]>[DB] | %16
w: ||||
w: ||||
w: ||||
w: ||||
 [CA]6 z2 |] %17
w: |
w: |
w: |
w: |
V:2
 [A,,A,]2 | [A,,A,]2 [A,,E,]2 [A,,A,]3 [C,A,] | [D,A,]2 [D,A,]2 [A,,A,]3 [A,,A,] | %3
w: ~|~ ~ ~ ~|~ ~ ~ ~|
 [A,,A,]2 [A,,E,]2 [A,,A,]2 [C,A,]2 | [E,G,]6 [E,G,]2 | A,2 [E,G,]2 [F,A,]2 [E,G,]2 | %6
w: ~ ~ ~ ~|~ ~|~ ~ ~ ~|
 A,2 [C,A,]2 [D,A,]3 [D,A,] | [E,A,]2 E,2 [E,A,]2 [E,G,]2 | [A,,A,]6 z2 || %9
w: ~ ~ ~ ~|~ ~ ~ ~|~|
 [A,,A,][A,,A,][A,,E,][A,,E,] [A,,A,]4 | [D,A,][D,A,][D,A,][D,A,] [A,,A,]4 | %11
w: Bless- èd be the name!|Bless- èd be the name!|
 [A,,A,][A,,A,][C,A,][E,G,] A,2 [G,B,][F,B,] | [E,G,]8 | A,A,A,A, A,4 | %14
w: Bless- èd be the name of the|Lord!|Bless- èd be the name!|
 [D,A,][D,A,][D,A,][D,A,] [A,,A,]4 | [A,,A,][A,,A,][C,A,][D,A,] [E,A,]2 [E,G,]>[E,G,] | %16
w: Bless- èd be the name!|Bless- èd be the name of the|
 [A,,E,]6 z2 |] %17
w: Lord!|
V:3
 x2 | x8 | x8 | x8 | x8 | A,2 x6 | x8 | x2 E,2 x4 | x8 || x8 | x8 | x4 A,2 x2 | x8 | x4 A,4 | x8 | %15
 x8 | x8 |] %17

